flaticon/seo-and-analytics/browser-42.svg

<svg xmlns="http://www.w3.org/2000/svg" width="32" height="32" viewBox="0 0 24 24">
    <path d="M2.800781 1.199219C1.921875 1.199219 1.199219 1.921875 1.199219 2.800781 1.199219 3.679688 1.921875 4.398438 2.800781 4.398438 3.679688 4.398438 4.398438 3.679688 4.398438 2.800781 4.398438 1.921875 3.679688 1.199219 2.800781 1.199219zM2.800781 3.601562C2.359375 3.601562 2 3.238281 2 2.800781 2 2.359375 2.359375 2 2.800781 2 3.238281 2 3.601562 2.359375 3.601562 2.800781 3.601562 3.238281 3.238281 3.601562 2.800781 3.601562zM6.398438 1.199219C5.519531 1.199219 4.800781 1.921875 4.800781 2.800781 4.800781 3.679688 5.519531 4.398438 6.398438 4.398438 7.28125 4.398438 8 3.679688 8 2.800781 8 1.921875 7.28125 1.199219 6.398438 1.199219zM6.398438 3.601562C5.960938 3.601562 5.601562 3.238281 5.601562 2.800781 5.601562 2.359375 5.960938 2 6.398438 2 6.839844 2 7.199219 2.359375 7.199219 2.800781 7.199219 3.238281 6.839844 3.601562 6.398438 3.601562zM10 1.199219C9.121094 1.199219 8.398438 1.921875 8.398438 2.800781 8.398438 3.679688 9.121094 4.398438 10 4.398438 10.878906 4.398438 11.601562 3.679688 11.601562 2.800781 11.601562 1.921875 10.878906 1.199219 10 1.199219zM10 3.601562C9.558594 3.601562 9.199219 3.238281 9.199219 2.800781 9.199219 2.359375 9.558594 2 10 2 10.441406 2 10.800781 2.359375 10.800781 2.800781 10.800781 3.238281 10.441406 3.601562 10 3.601562zM10 3.601562"/>
    <path d="M 22.878906 0 L 1.160156 0 C 0.519531 0 0 0.519531 0 1.160156 L 0 22.71875 C 0 23.441406 0.558594 24 1.28125 24 L 22.71875 24 C 23.441406 24 24 23.441406 24 22.71875 L 24 1.160156 C 24 0.519531 23.480469 0 22.878906 0 Z M 23.199219 22.71875 C 23.199219 23 23 23.199219 22.71875 23.199219 L 1.28125 23.199219 C 1 23.199219 0.800781 23 0.800781 22.71875 L 0.800781 5.601562 L 23.199219 5.601562 Z M 0.800781 4.800781 L 0.800781 1.160156 C 0.800781 0.960938 0.960938 0.800781 1.160156 0.800781 L 22.839844 0.800781 C 23.039062 0.800781 23.199219 0.960938 23.199219 1.160156 L 23.199219 4.800781 Z M 0.800781 4.800781"/>
    <path d="M 11.480469 12.121094 L 14.601562 9 C 14.960938 8.601562 15.441406 8.398438 16 8.398438 C 16.558594 8.398438 17.039062 8.601562 17.441406 9 C 17.839844 9.359375 18.039062 9.878906 18.039062 10.398438 C 18.039062 10.921875 17.800781 11.441406 17.441406 11.800781 L 14.320312 14.921875 C 13.960938 15.320312 13.441406 15.519531 12.921875 15.519531 C 12.398438 15.519531 11.878906 15.28125 11.519531 14.921875 C 11.359375 14.761719 11.121094 14.761719 10.960938 14.921875 C 10.800781 15.078125 10.800781 15.320312 10.960938 15.480469 C 11.480469 16 12.160156 16.28125 12.921875 16.28125 C 13.640625 16.28125 14.359375 16 14.878906 15.480469 L 18 12.359375 C 18.519531 11.839844 18.800781 11.160156 18.800781 10.398438 C 18.800781 9.679688 18.519531 8.960938 18 8.441406 C 17.480469 7.921875 16.800781 7.640625 16.039062 7.640625 C 15.28125 7.640625 14.558594 7.921875 14.039062 8.441406 L 10.921875 11.558594 C 10.761719 11.71875 10.761719 11.960938 10.921875 12.121094 C 11.078125 12.28125 11.320312 12.28125 11.480469 12.121094 Z M 11.480469 12.121094"/>
    <path d="M7.601562 21.601562C8.359375 21.601562 9.039062 21.320312 9.558594 20.800781L12.679688 17.640625C12.839844 17.480469 12.839844 17.238281 12.679688 17.078125 12.519531 16.921875 12.28125 16.921875 12.121094 17.078125L9 20.199219C8.640625 20.601562 8.121094 20.800781 7.601562 20.800781 7.078125 20.800781 6.558594 20.558594 6.199219 20.199219 5.800781 19.839844 5.601562 19.320312 5.601562 18.800781 5.601562 18.28125 5.800781 17.761719 6.199219 17.398438L9.320312 14.28125C9.679688 13.878906 10.199219 13.679688 10.71875 13.679688 11.238281 13.679688 11.761719 13.921875 12.121094 14.28125 12.28125 14.441406 12.519531 14.441406 12.679688 14.28125 12.839844 14.121094 12.839844 13.878906 12.679688 13.71875 12.160156 13.199219 11.441406 12.917969 10.71875 12.917969 10 12.917969 9.28125 13.199219 8.761719 13.71875L5.640625 16.839844C5.121094 17.359375 4.839844 18.039062 4.839844 18.800781 4.839844 19.558594 5.121094 20.28125 5.640625 20.800781 6.160156 21.320312 6.839844 21.601562 7.601562 21.601562zM5.601562 12.800781L8 12.800781C8.238281 12.800781 8.398438 12.640625 8.398438 12.398438 8.398438 12.160156 8.238281 12 8 12L5.601562 12C5.359375 12 5.199219 12.160156 5.199219 12.398438 5.199219 12.640625 5.359375 12.800781 5.601562 12.800781zM10 10.398438C10.238281 10.398438 10.398438 10.238281 10.398438 10L10.398438 7.601562C10.398438 7.359375 10.238281 7.199219 10 7.199219 9.761719 7.199219 9.601562 7.359375 9.601562 7.601562L9.601562 10C9.601562 10.238281 9.761719 10.398438 10 10.398438zM7.71875 10.679688C7.800781 10.761719 7.878906 10.800781 8 10.800781 8.121094 10.800781 8.199219 10.761719 8.28125 10.679688 8.441406 10.519531 8.441406 10.28125 8.28125 10.121094L6.28125 8.121094C6.121094 7.960938 5.878906 7.960938 5.71875 8.121094 5.558594 8.28125 5.558594 8.519531 5.71875 8.679688zM14 18.398438C13.761719 18.398438 13.601562 18.558594 13.601562 18.800781L13.601562 21.199219C13.601562 21.441406 13.761719 21.601562 14 21.601562 14.238281 21.601562 14.398438 21.441406 14.398438 21.199219L14.398438 18.800781C14.398438 18.558594 14.238281 18.398438 14 18.398438zM16.398438 16.398438C16.160156 16.398438 16 16.558594 16 16.800781 16 17.039062 16.160156 17.199219 16.398438 17.199219L18.800781 17.199219C19.039062 17.199219 19.199219 17.039062 19.199219 16.800781 19.199219 16.558594 19.039062 16.398438 18.800781 16.398438zM16.28125 18.519531C16.121094 18.359375 15.878906 18.359375 15.71875 18.519531 15.558594 18.679688 15.558594 18.921875 15.71875 19.078125L17.71875 21.078125C17.800781 21.160156 17.878906 21.199219 18 21.199219 18.121094 21.199219 18.199219 21.160156 18.28125 21.078125 18.441406 20.921875 18.441406 20.679688 18.28125 20.519531zM16.28125 18.519531"/>
</svg>

<svg xmlns="http://www.w3.org/2000/svg" width="32" height="32" viewBox="0 0 24 24">
    <path d="M2.8 1.2c-.878 0-1.6.722-1.6 1.6 0 .88.722 1.598 1.6 1.598.88 0 1.598-.718 1.598-1.597 0-.88-.718-1.602-1.597-1.602zm0 2.402A.804.804 0 0 1 2 2.8C2 2.359 2.36 2 2.8 2c.438 0 .802.36.802.8 0 .438-.364.802-.801.802zm0 0M6.398 1.2c-.878 0-1.597.722-1.597 1.6 0 .88.719 1.598 1.597 1.598C7.281 4.398 8 3.68 8 2.801c0-.88-.719-1.602-1.602-1.602zm0 2.402a.801.801 0 0 1 0-1.602c.442 0 .801.36.801.8 0 .438-.36.802-.8.802zm0 0M10 1.2c-.879 0-1.602.722-1.602 1.6 0 .88.723 1.598 1.602 1.598.879 0 1.602-.718 1.602-1.597 0-.88-.723-1.602-1.602-1.602zm0 2.402a.804.804 0 0 1-.8-.801.802.802 0 0 1 1.6 0c0 .437-.359.8-.8.8zm0 0"/>
    <path d="M22.879 0H1.16C.52 0 0 .52 0 1.16V22.72C0 23.44.559 24 1.281 24H22.72C23.44 24 24 23.441 24 22.719V1.16C24 .52 23.48 0 22.879 0zm.32 22.719c0 .281-.199.48-.48.48H1.28c-.281 0-.48-.199-.48-.48V5.602h22.398zM.801 4.8V1.16C.8.96.96.8 1.16.8H22.84c.2 0 .36.16.36.36V4.8zm0 0"/>
    <path d="M11.48 12.121L14.602 9c.359-.398.84-.602 1.398-.602.559 0 1.04.204 1.441.602.399.36.598.879.598 1.398 0 .524-.238 1.043-.598 1.403l-3.12 3.12c-.36.4-.88.599-1.4.599a2.035 2.035 0 0 1-1.401-.598.385.385 0 0 0-.56 0 .385.385 0 0 0 0 .558c.52.52 1.2.801 1.962.801.719 0 1.437-.281 1.957-.8L18 12.358c.52-.52.8-1.199.8-1.96 0-.72-.28-1.438-.8-1.958s-1.2-.8-1.96-.8c-.759 0-1.481.28-2 .8l-3.118 3.118a.39.39 0 0 0 0 .562c.156.16.398.16.558 0zm0 0"/>
    <path d="M7.602 21.602c.757 0 1.437-.282 1.957-.801l3.12-3.16a.39.39 0 0 0 0-.563.391.391 0 0 0-.558 0L9 20.2c-.36.403-.879.602-1.398.602-.524 0-1.043-.242-1.403-.602a1.876 1.876 0 0 1-.597-1.398c0-.52.199-1.04.597-1.403l3.121-3.117c.36-.402.88-.601 1.399-.601.52 0 1.043.242 1.402.601.16.16.399.16.559 0a.39.39 0 0 0 0-.562c-.52-.52-1.239-.801-1.961-.801-.719 0-1.438.281-1.957.8L5.64 16.84c-.52.52-.801 1.2-.801 1.96 0 .759.281 1.481.8 2 .52.52 1.2.802 1.962.802zm0 0M5.602 12.8H8c.238 0 .398-.16.398-.402 0-.238-.16-.398-.398-.398H5.602c-.243 0-.403.16-.403.398 0 .243.16.403.403.403zm0 0M10 10.398c.238 0 .398-.16.398-.398V7.602c0-.243-.16-.403-.398-.403-.238 0-.398.16-.398.403V10c0 .238.16.398.398.398zm0 0M7.719 10.68c.082.082.16.12.281.12.121 0 .2-.038.281-.12a.385.385 0 0 0 0-.559l-2-2a.39.39 0 0 0-.562 0 .385.385 0 0 0 0 .559zm0 0M14 18.398c-.238 0-.398.16-.398.403v2.398c0 .242.16.403.398.403.238 0 .398-.16.398-.403v-2.398c0-.242-.16-.403-.398-.403zm0 0M16.398 16.398c-.238 0-.398.16-.398.403 0 .238.16.398.398.398h2.403c.238 0 .398-.16.398-.398 0-.242-.16-.403-.398-.403zm0 0M16.281 18.52a.39.39 0 0 0-.562 0 .385.385 0 0 0 0 .558l2 2c.082.082.16.121.281.121.121 0 .2-.039.281-.12a.385.385 0 0 0 0-.56zm0 0"/>
</svg>
